X: 4
T: Jefferson and Liberty  v.2
P: piffero secondo a0056
C: Dan Moylan
F: http://ancients.sudburymuster.org/mus/med/pdf/jeffblackwC1.pdf
Z: 2019 John Chambers <jc:trillian.mit.edu>
M: 6/8
L: 1/8
K: Bm
z |"^>"\
FD2 DCD | DB,2 DCB, | EC2 CDE | CEG GFE |\
FD2 DCD | A,B,D DEA | DEF GFE | FED D2 :|
|: z |\
DEG FAG | AF2 EF2 | AFE FDA, | CEG GED |\
DEG FAG | AEF G3  | DEF GFE  | FED D2 :|

% %sep 1 1 200
% %center - - - - - - - - - -
% Whatever we want at the bottom of each set belongs here.
